Newaita/actions/22/distribute-horizontal-page.svg

<svg height="22" viewBox="0 0 22 22" width="22" xmlns="http://www.w3.org/2000/svg"><g fill="#424242"><path d="m1.820312 18.363281c0 1.007813.808594 1.820313 1.816407 1.820313h10.917969l1.816406-1.820313h-11.824219c-.503906 0-.910156-.40625-.910156-.910156v-12.734375c0-.503906.40625-.910156.910156-.910156h12.734375c.503906 0 .910156.40625.910156.910156v11.824219l1.820313-1.816407v-10.917968c0-1.007813-.8125-1.816406-1.820313-1.816406h-14.554687c-1.007813 0-1.816407.808593-1.816407 1.816406zm0 0"/><path d="m10.003906 6.085938c0 .25-.203125.453124-.453125.453124h-3.636719c-.253906 0-.457031-.203124-.457031-.453124 0-.253907.203125-.457032.457031-.457032h3.636719c.25 0 .453125.203125.453125.457032zm0 0"/><path d="m10.003906 16.066406v.046875c0 .238281-.203125.429688-.453125.429688h-3.636719c-.253906 0-.457031-.191407-.457031-.429688v-.046875c0-.238281.203125-.429687.457031-.429687h3.636719c.25 0 .453125.191406.453125.429687zm0 0"/><path d="m9.570312 16.542969h-.003906c-.238281 0-.433594-.203125-.433594-.453125v-10.003906c0-.253907.195313-.457032.433594-.457032h.003906c.242188 0 .433594.203125.433594.457032v10.003906c0 .25-.191406.453125-.433594.453125zm0 0"/><path d="m5.929688 16.542969h-.035157c-.242187 0-.4375-.195313-.4375-.433594v-10.042969c0-.242187.195313-.4375.4375-.4375h.035157c.242187 0 .4375.195313.4375.4375v10.042969c0 .238281-.195313.433594-.4375.433594zm0 0"/><path d="m16.371094 6.085938c0 .25-.203125.453124-.453125.453124h-3.636719c-.253906 0-.457031-.203124-.457031-.453124 0-.253907.203125-.457032.457031-.457032h3.636719c.25 0 .453125.203125.453125.457032zm0 0"/><path d="m15.5 12.90625h.871094v-6.820312c0-.253907-.191406-.457032-.433594-.457032h-.003906c-.238282 0-.433594.203125-.433594.457032zm0 0"/><path d="m11.824219 16.109375c0 .242187.195312.433594.4375.433594h.035156c.191406 0 .347656-.117188.410156-.285157v-1.988281h.027344v-8.203125c0-.242187-.195313-.4375-.4375-.4375h-.035156c-.242188 0-.4375.195313-.4375.4375zm0 0"/><path d="m14.554688 18.363281c0 .503907.203124.960938.53125 1.289063l4.394531-4.394532c-.328125-.328124-.785157-.53125-1.289063-.53125h-1.820312c-1.007813 0-1.816406.808594-1.816406 1.816407zm0 0"/></g></svg>

<svg xmlns="http://www.w3.org/2000/svg" xmlns:xlink="http://www.w3.org/1999/xlink" width="22px" height="22px" viewBox="0 0 22 22" version="1.1">
<g id="surface1">
     <defs>
  <style id="current-color-scheme" type="text/css">
   .ColorScheme-Text { color:#424242; } .ColorScheme-Highlight { color:#eeeeee; }
  </style>
 </defs>
<path style="fill:currentColor" class="ColorScheme-Text" d="M 1.820312 18.363281 C 1.820312 19.371094 2.628906 20.183594 3.636719 20.183594 L 14.554688 20.183594 L 16.371094 18.363281 L 4.546875 18.363281 C 4.042969 18.363281 3.636719 17.957031 3.636719 17.453125 L 3.636719 4.71875 C 3.636719 4.214844 4.042969 3.808594 4.546875 3.808594 L 17.28125 3.808594 C 17.785156 3.808594 18.191406 4.214844 18.191406 4.71875 L 18.191406 16.542969 L 20.011719 14.726562 L 20.011719 3.808594 C 20.011719 2.800781 19.199219 1.992188 18.191406 1.992188 L 3.636719 1.992188 C 2.628906 1.992188 1.820312 2.800781 1.820312 3.808594 Z M 1.820312 18.363281 "/>
     <defs>
  <style id="current-color-scheme" type="text/css">
   .ColorScheme-Text { color:#424242; } .ColorScheme-Highlight { color:#eeeeee; }
  </style>
 </defs>
<path style="fill:currentColor" class="ColorScheme-Text" d="M 10.003906 6.085938 C 10.003906 6.335938 9.800781 6.539062 9.550781 6.539062 L 5.914062 6.539062 C 5.660156 6.539062 5.457031 6.335938 5.457031 6.085938 C 5.457031 5.832031 5.660156 5.628906 5.914062 5.628906 L 9.550781 5.628906 C 9.800781 5.628906 10.003906 5.832031 10.003906 6.085938 Z M 10.003906 6.085938 "/>
     <defs>
  <style id="current-color-scheme" type="text/css">
   .ColorScheme-Text { color:#424242; } .ColorScheme-Highlight { color:#eeeeee; }
  </style>
 </defs>
<path style="fill:currentColor" class="ColorScheme-Text" d="M 10.003906 16.066406 L 10.003906 16.113281 C 10.003906 16.351562 9.800781 16.542969 9.550781 16.542969 L 5.914062 16.542969 C 5.660156 16.542969 5.457031 16.351562 5.457031 16.113281 L 5.457031 16.066406 C 5.457031 15.828125 5.660156 15.636719 5.914062 15.636719 L 9.550781 15.636719 C 9.800781 15.636719 10.003906 15.828125 10.003906 16.066406 Z M 10.003906 16.066406 "/>
     <defs>
  <style id="current-color-scheme" type="text/css">
   .ColorScheme-Text { color:#424242; } .ColorScheme-Highlight { color:#eeeeee; }
  </style>
 </defs>
<path style="fill:currentColor" class="ColorScheme-Text" d="M 9.570312 16.542969 L 9.566406 16.542969 C 9.328125 16.542969 9.132812 16.339844 9.132812 16.089844 L 9.132812 6.085938 C 9.132812 5.832031 9.328125 5.628906 9.566406 5.628906 L 9.570312 5.628906 C 9.8125 5.628906 10.003906 5.832031 10.003906 6.085938 L 10.003906 16.089844 C 10.003906 16.339844 9.8125 16.542969 9.570312 16.542969 Z M 9.570312 16.542969 "/>
     <defs>
  <style id="current-color-scheme" type="text/css">
   .ColorScheme-Text { color:#424242; } .ColorScheme-Highlight { color:#eeeeee; }
  </style>
 </defs>
<path style="fill:currentColor" class="ColorScheme-Text" d="M 5.929688 16.542969 L 5.894531 16.542969 C 5.652344 16.542969 5.457031 16.347656 5.457031 16.109375 L 5.457031 6.066406 C 5.457031 5.824219 5.652344 5.628906 5.894531 5.628906 L 5.929688 5.628906 C 6.171875 5.628906 6.367188 5.824219 6.367188 6.066406 L 6.367188 16.109375 C 6.367188 16.347656 6.171875 16.542969 5.929688 16.542969 Z M 5.929688 16.542969 "/>
     <defs>
  <style id="current-color-scheme" type="text/css">
   .ColorScheme-Text { color:#424242; } .ColorScheme-Highlight { color:#eeeeee; }
  </style>
 </defs>
<path style="fill:currentColor" class="ColorScheme-Text" d="M 16.371094 6.085938 C 16.371094 6.335938 16.167969 6.539062 15.917969 6.539062 L 12.28125 6.539062 C 12.027344 6.539062 11.824219 6.335938 11.824219 6.085938 C 11.824219 5.832031 12.027344 5.628906 12.28125 5.628906 L 15.917969 5.628906 C 16.167969 5.628906 16.371094 5.832031 16.371094 6.085938 Z M 16.371094 6.085938 "/>
     <defs>
  <style id="current-color-scheme" type="text/css">
   .ColorScheme-Text { color:#424242; } .ColorScheme-Highlight { color:#eeeeee; }
  </style>
 </defs>
<path style="fill:currentColor" class="ColorScheme-Text" d="M 15.5 12.90625 L 16.371094 12.90625 L 16.371094 6.085938 C 16.371094 5.832031 16.179688 5.628906 15.9375 5.628906 L 15.933594 5.628906 C 15.695312 5.628906 15.5 5.832031 15.5 6.085938 Z M 15.5 12.90625 "/>
     <defs>
  <style id="current-color-scheme" type="text/css">
   .ColorScheme-Text { color:#424242; } .ColorScheme-Highlight { color:#eeeeee; }
  </style>
 </defs>
<path style="fill:currentColor" class="ColorScheme-Text" d="M 11.824219 16.109375 C 11.824219 16.351562 12.019531 16.542969 12.261719 16.542969 L 12.296875 16.542969 C 12.488281 16.542969 12.644531 16.425781 12.707031 16.257812 L 12.707031 14.269531 L 12.734375 14.269531 L 12.734375 6.066406 C 12.734375 5.824219 12.539062 5.628906 12.296875 5.628906 L 12.261719 5.628906 C 12.019531 5.628906 11.824219 5.824219 11.824219 6.066406 Z M 11.824219 16.109375 "/>
     <defs>
  <style id="current-color-scheme" type="text/css">
   .ColorScheme-Text { color:#424242; } .ColorScheme-Highlight { color:#eeeeee; }
  </style>
 </defs>
<path style="fill:currentColor" class="ColorScheme-Text" d="M 14.554688 18.363281 C 14.554688 18.867188 14.757812 19.324219 15.085938 19.652344 L 19.480469 15.257812 C 19.152344 14.929688 18.695312 14.726562 18.191406 14.726562 L 16.371094 14.726562 C 15.363281 14.726562 14.554688 15.535156 14.554688 16.542969 Z M 14.554688 18.363281 "/>
</g>
</svg>
